src/images/grid_lp/fb-icon.svg

<?xml version="1.0" encoding="UTF-8"?>
<svg width="50px" height="50px" viewBox="0 0 50 50" version="1.1" xmlns="http://www.w3.org/2000/svg" xmlns:xlink="http://www.w3.org/1999/xlink">
    <!-- Generator: Sketch 52.6 (67491) - http://www.bohemiancoding.com/sketch -->
    <title>fb-icon</title>
    <desc>Created with Sketch.</desc>
    <g id="Binary-Bot-Landing-Page" stroke="none" stroke-width="1" fill="none" fill-rule="evenodd">
        <g id="Binary-Bot-Landing-Page-1" transform="translate(-695.000000, -4955.000000)" stroke="#FFFFFF" stroke-width="1.2195122">
            <g id="Need-further-assistance" transform="translate(0.000000, 4878.000000)">
                <g id="fb-icon" transform="translate(695.000000, 77.000000)">
                    <circle id="Ellipse_4" cx="25" cy="25" r="24.3902439"></circle>
                    <path d="M27.2762195,39.4719512 L27.2762195,26.3012195 L31.6664634,26.3012195 L32.3170732,21.097561 L27.2762195,21.097561 L27.2762195,17.8457317 C27.2762195,16.3823171 27.7640244,15.4067073 29.8780488,15.4067073 L32.6420732,15.4067073 L32.6420732,10.6914634 C32.1542683,10.6914634 30.5280488,10.5286585 28.7396341,10.5286585 C24.8371951,10.5286585 22.0731707,12.9676829 22.0731707,17.3579268 L22.0731707,21.097561 L17.6829268,21.097561 L17.6829268,26.3006098 L22.0731707,26.3006098 L22.0731707,39.4713415 L27.2762195,39.4719512 Z" id="f_2_"></path>
                </g>
            </g>
        </g>
    </g>
</svg>

<svg width="50" height="50" viewBox="0 0 50 50" xmlns="http://www.w3.org/2000/svg"><g stroke="#FFF" stroke-width="1.22" fill="none" fill-rule="evenodd"><circle cx="25" cy="25" r="24.39"/><path d="M27.276 39.472v-13.17h4.39l.651-5.204h-5.04v-3.252c0-1.464.487-2.44 2.601-2.44h2.764v-4.715c-.488 0-2.114-.162-3.902-.162-3.903 0-6.667 2.439-6.667 6.829v3.74h-4.39V26.3h4.39v13.17l5.203.001z"/></g></svg>
